img/icons_services/Trust.svg

<svg width="64" height="64" viewBox="0 0 64 64" fill="none" xmlns="http://www.w3.org/2000/svg">
<path d="M42.0059 56H23.0059V62H42.0059V56Z" fill="black"/>
<path d="M42.0059 56H23.0059V62H42.0059V56Z" fill="url(#paint0_linear_22728_12634)"/>
<path d="M15.1728 2.45168L1.73779 15.8867L5.27333 19.4223L18.7084 5.98722L15.1728 2.45168Z" fill="black"/>
<path d="M15.1728 2.45168L1.73779 15.8867L5.27333 19.4223L18.7084 5.98722L15.1728 2.45168Z" fill="url(#paint1_linear_22728_12634)"/>
<path d="M49.1127 2.31995L45.5771 5.85547L59.0122 19.2905L62.5477 15.755L49.1127 2.31995Z" fill="black"/>
<path d="M49.1127 2.31995L45.5771 5.85547L59.0122 19.2905L62.5477 15.755L49.1127 2.31995Z" fill="url(#paint2_linear_22728_12634)"/>
<path d="M44.5564 9.70843L41.8651 9.59436C41.089 9.48482 40.2981 9.55713 39.5548 9.80558C38.8115 10.054 38.1361 10.4718 37.5819 11.026L32.0775 16.5305L26.3239 10.7769C25.8244 10.2888 25.2011 9.94628 24.5214 9.78612C23.8416 9.62596 23.131 9.65426 22.4661 9.86798C21.8388 10.0587 21.1715 10.0755 20.5355 9.9164C19.8995 9.75732 19.3186 9.42842 18.8551 8.96483L18.0012 8.11095L7.39453 18.7175L9.12253 20.4455L9.00845 23.1368C8.89891 23.9128 8.97122 24.7037 9.21966 25.447C9.46811 26.1903 9.8859 26.8657 10.4401 27.4199L20.0525 37.0324C20.181 35.7705 20.7856 34.6051 21.7432 33.7734L18.7482 30.7785L19.4553 30.0714L22.5836 33.1996C23.027 32.9472 23.5068 32.7649 24.0059 32.6591V28.9651L22.2838 27.243L22.9908 26.5358L24.0059 27.5509V22.201C23.9948 21.3168 24.3086 20.4592 24.8879 19.791C25.4672 19.1228 26.2716 18.6904 27.1485 18.576C27.4792 18.544 27.8128 18.559 28.1393 18.6208L26.9098 17.3914L27.6169 16.6843L29.4131 18.4804C29.7312 17.864 30.2233 17.3547 30.8283 17.0154C31.4333 16.6762 32.1246 16.5221 32.8165 16.5721C33.6513 16.6697 34.4258 17.0562 35.0057 17.6647C35.5855 18.2733 35.9342 19.0655 35.9913 19.9041C36.5596 19.634 37.1894 19.5194 37.8165 19.5721C38.7075 19.6788 39.5273 20.1126 40.1166 20.7895C40.7059 21.4663 41.0229 22.3379 41.0059 23.2352V26.6591C41.916 26.8491 42.7551 27.289 43.4292 27.9293C44.1032 28.5696 44.5855 29.3851 44.822 30.2842L47.6105 27.4957L48.3176 28.2029L45.0023 31.5181C45.0024 31.5319 45.0059 31.5447 45.0059 31.5585V34.8785C45.9043 34.7845 46.7437 34.3864 47.3848 33.7501L54.225 26.9099C54.7131 26.4104 55.0556 25.7871 55.2158 25.1073C55.3759 24.4276 55.3476 23.7169 55.1339 23.0521C54.9431 22.4248 54.9264 21.7575 55.0855 21.1215C55.2445 20.4854 55.5735 19.9046 56.0371 19.441L56.8909 18.5871L46.2844 7.98047L44.5564 9.70843Z" fill="black"/>
<path d="M44.5564 9.70843L41.8651 9.59436C41.089 9.48482 40.2981 9.55713 39.5548 9.80558C38.8115 10.054 38.1361 10.4718 37.5819 11.026L32.0775 16.5305L26.3239 10.7769C25.8244 10.2888 25.2011 9.94628 24.5214 9.78612C23.8416 9.62596 23.131 9.65426 22.4661 9.86798C21.8388 10.0587 21.1715 10.0755 20.5355 9.9164C19.8995 9.75732 19.3186 9.42842 18.8551 8.96483L18.0012 8.11095L7.39453 18.7175L9.12253 20.4455L9.00845 23.1368C8.89891 23.9128 8.97122 24.7037 9.21966 25.447C9.46811 26.1903 9.8859 26.8657 10.4401 27.4199L20.0525 37.0324C20.181 35.7705 20.7856 34.6051 21.7432 33.7734L18.7482 30.7785L19.4553 30.0714L22.5836 33.1996C23.027 32.9472 23.5068 32.7649 24.0059 32.6591V28.9651L22.2838 27.243L22.9908 26.5358L24.0059 27.5509V22.201C23.9948 21.3168 24.3086 20.4592 24.8879 19.791C25.4672 19.1228 26.2716 18.6904 27.1485 18.576C27.4792 18.544 27.8128 18.559 28.1393 18.6208L26.9098 17.3914L27.6169 16.6843L29.4131 18.4804C29.7312 17.864 30.2233 17.3547 30.8283 17.0154C31.4333 16.6762 32.1246 16.5221 32.8165 16.5721C33.6513 16.6697 34.4258 17.0562 35.0057 17.6647C35.5855 18.2733 35.9342 19.0655 35.9913 19.9041C36.5596 19.634 37.1894 19.5194 37.8165 19.5721C38.7075 19.6788 39.5273 20.1126 40.1166 20.7895C40.7059 21.4663 41.0229 22.3379 41.0059 23.2352V26.6591C41.916 26.8491 42.7551 27.289 43.4292 27.9293C44.1032 28.5696 44.5855 29.3851 44.822 30.2842L47.6105 27.4957L48.3176 28.2029L45.0023 31.5181C45.0024 31.5319 45.0059 31.5447 45.0059 31.5585V34.8785C45.9043 34.7845 46.7437 34.3864 47.3848 33.7501L54.225 26.9099C54.7131 26.4104 55.0556 25.7871 55.2158 25.1073C55.3759 24.4276 55.3476 23.7169 55.1339 23.0521C54.9431 22.4248 54.9264 21.7575 55.0855 21.1215C55.2445 20.4854 55.5735 19.9046 56.0371 19.441L56.8909 18.5871L46.2844 7.98047L44.5564 9.70843Z" fill="url(#paint3_linear_22728_12634)"/>
<path d="M29.8802 21.6901C29.8042 21.0405 29.4757 20.4468 28.9657 20.0373C28.4557 19.6278 27.8051 19.4353 27.1544 19.5015C26.5232 19.5886 25.946 19.9046 25.5326 20.3894C25.1192 20.8742 24.8984 21.4941 24.9121 22.1311V33.4885C23.8512 33.4885 22.8338 33.9099 22.0837 34.66C21.3335 35.4102 20.9121 36.4276 20.9121 37.4885V47.1619C20.9202 47.8603 21.1187 48.5432 21.4861 49.1371C21.8536 49.7311 22.376 50.2135 22.9973 50.5325C23.5757 50.8412 24.0594 51.3012 24.3967 51.8634C24.734 52.4256 24.9121 53.0689 24.9121 53.7245V54.9321H39.9121V52.4885L41.8958 50.6661C42.522 50.1948 43.0301 49.5844 43.38 48.8831C43.73 48.1818 43.9121 47.4088 43.9121 46.6251V31.4885C43.9121 30.4276 43.4907 29.4102 42.7405 28.66C41.9904 27.9099 40.973 27.4885 39.9121 27.4885V23.1659C39.9291 22.5187 39.706 21.888 39.2857 21.3955C38.8655 20.903 38.2778 20.5834 37.636 20.4983C37.006 20.4426 36.3785 20.6285 35.8804 21.0183C35.3824 21.408 35.0511 21.9725 34.9537 22.5974H35.4121V38.0407H34.4121V22.5974H34.9121V20.1659C34.9291 19.5187 34.706 18.888 34.2857 18.3955C33.8655 17.903 33.2778 17.5834 32.636 17.4983C32.2902 17.4673 31.9417 17.5086 31.6128 17.6196C31.2838 17.7306 30.9816 17.909 30.7254 18.1432C30.4691 18.3775 30.2645 18.6625 30.1245 18.9802C29.9845 19.2979 29.9121 19.6413 29.9121 19.9885V21.6901H30.4121V37.1335H29.4121V21.6901H29.8802ZM25.3113 42.0407H24.3113V34.0407H25.3113V42.0407ZM39.4121 27.799H40.4121V38.2423H39.4121V27.799Z" fill="black"/>
<path d="M29.8802 21.6901C29.8042 21.0405 29.4757 20.4468 28.9657 20.0373C28.4557 19.6278 27.8051 19.4353 27.1544 19.5015C26.5232 19.5886 25.946 19.9046 25.5326 20.3894C25.1192 20.8742 24.8984 21.4941 24.9121 22.1311V33.4885C23.8512 33.4885 22.8338 33.9099 22.0837 34.66C21.3335 35.4102 20.9121 36.4276 20.9121 37.4885V47.1619C20.9202 47.8603 21.1187 48.5432 21.4861 49.1371C21.8536 49.7311 22.376 50.2135 22.9973 50.5325C23.5757 50.8412 24.0594 51.3012 24.3967 51.8634C24.734 52.4256 24.9121 53.0689 24.9121 53.7245V54.9321H39.9121V52.4885L41.8958 50.6661C42.522 50.1948 43.0301 49.5844 43.38 48.8831C43.73 48.1818 43.9121 47.4088 43.9121 46.6251V31.4885C43.9121 30.4276 43.4907 29.4102 42.7405 28.66C41.9904 27.9099 40.973 27.4885 39.9121 27.4885V23.1659C39.9291 22.5187 39.706 21.888 39.2857 21.3955C38.8655 20.903 38.2778 20.5834 37.636 20.4983C37.006 20.4426 36.3785 20.6285 35.8804 21.0183C35.3824 21.408 35.0511 21.9725 34.9537 22.5974H35.4121V38.0407H34.4121V22.5974H34.9121V20.1659C34.9291 19.5187 34.706 18.888 34.2857 18.3955C33.8655 17.903 33.2778 17.5834 32.636 17.4983C32.2902 17.4673 31.9417 17.5086 31.6128 17.6196C31.2838 17.7306 30.9816 17.909 30.7254 18.1432C30.4691 18.3775 30.2645 18.6625 30.1245 18.9802C29.9845 19.2979 29.9121 19.6413 29.9121 19.9885V21.6901H30.4121V37.1335H29.4121V21.6901H29.8802ZM25.3113 42.0407H24.3113V34.0407H25.3113V42.0407ZM39.4121 27.799H40.4121V38.2423H39.4121V27.799Z" fill="url(#paint4_linear_22728_12634)"/>
<defs>
<linearGradient id="paint0_linear_22728_12634" x1="32.5059" y1="56" x2="32.5059" y2="62" gradientUnits="userSpaceOnUse">
<stop stop-color="#EF8080"/>
<stop offset="1" stop-color="#F0145A"/>
</linearGradient>
<linearGradient id="paint1_linear_22728_12634" x1="8.45531" y1="9.1692" x2="11.9909" y2="12.7047" gradientUnits="userSpaceOnUse">
<stop stop-color="#EF8080"/>
<stop offset="1" stop-color="#F0145A"/>
</linearGradient>
<linearGradient id="paint2_linear_22728_12634" x1="47.3449" y1="4.08771" x2="60.78" y2="17.5228" gradientUnits="userSpaceOnUse">
<stop stop-color="#EF8080"/>
<stop offset="1" stop-color="#F0145A"/>
</linearGradient>
<linearGradient id="paint3_linear_22728_12634" x1="32.1427" y1="7.98047" x2="32.1427" y2="37.0324" gradientUnits="userSpaceOnUse">
<stop stop-color="#EF8080"/>
<stop offset="1" stop-color="#F0145A"/>
</linearGradient>
<linearGradient id="paint4_linear_22728_12634" x1="32.4121" y1="17.4883" x2="32.4121" y2="54.9321" gradientUnits="userSpaceOnUse">
<stop stop-color="#EF8080"/>
<stop offset="1" stop-color="#F0145A"/>
</linearGradient>
</defs>
</svg>

<svg width="64" height="64" fill="none" xmlns="http://www.w3.org/2000/svg"><path d="M42.006 56h-19v6h19v-6Z" fill="#000"/><path d="M42.006 56h-19v6h19v-6Z" fill="url(#a)"/><path d="M15.173 2.452 1.738 15.887l3.535 3.535L18.708 5.987l-3.535-3.535Z" fill="#000"/><path d="M15.173 2.452 1.738 15.887l3.535 3.535L18.708 5.987l-3.535-3.535Z" fill="url(#b)"/><path d="m49.113 2.32-3.536 3.535 13.435 13.436 3.536-3.536L49.113 2.32Z" fill="#000"/><path d="m49.113 2.32-3.536 3.535 13.435 13.436 3.536-3.536L49.113 2.32Z" fill="url(#c)"/><path d="m44.556 9.708-2.69-.114a5.058 5.058 0 0 0-4.284 1.432l-5.505 5.505-5.753-5.754a3.839 3.839 0 0 0-3.858-.909 3.618 3.618 0 0 1-3.61-.903L18 8.11 7.395 18.718l1.728 1.727-.115 2.692a5.058 5.058 0 0 0 1.432 4.283l9.612 9.612a4.985 4.985 0 0 1 1.691-3.259l-2.995-2.995.707-.707 3.129 3.129a4.95 4.95 0 0 1 1.422-.54v-3.695l-1.722-1.722.707-.707 1.015 1.015V22.2a3.61 3.61 0 0 1 3.142-3.625 3.51 3.51 0 0 1 .991.045l-1.23-1.23.708-.707 1.796 1.796a3.542 3.542 0 0 1 3.403-1.908 3.602 3.602 0 0 1 3.175 3.332 3.558 3.558 0 0 1 1.825-.332 3.62 3.62 0 0 1 3.19 3.663v3.424a5.003 5.003 0 0 1 3.816 3.625l2.788-2.788.708.707-3.316 3.315c0 .014.004.027.004.04v3.32a3.962 3.962 0 0 0 2.379-1.128l6.84-6.84a3.84 3.84 0 0 0 .909-3.858 3.618 3.618 0 0 1 .903-3.611l.854-.854L46.284 7.98l-1.728 1.728Z" fill="#000"/><path d="m44.556 9.708-2.69-.114a5.058 5.058 0 0 0-4.284 1.432l-5.505 5.505-5.753-5.754a3.839 3.839 0 0 0-3.858-.909 3.618 3.618 0 0 1-3.61-.903L18 8.11 7.395 18.718l1.728 1.727-.115 2.692a5.058 5.058 0 0 0 1.432 4.283l9.612 9.612a4.985 4.985 0 0 1 1.691-3.259l-2.995-2.995.707-.707 3.129 3.129a4.95 4.95 0 0 1 1.422-.54v-3.695l-1.722-1.722.707-.707 1.015 1.015V22.2a3.61 3.61 0 0 1 3.142-3.625 3.51 3.51 0 0 1 .991.045l-1.23-1.23.708-.707 1.796 1.796a3.542 3.542 0 0 1 3.403-1.908 3.602 3.602 0 0 1 3.175 3.332 3.558 3.558 0 0 1 1.825-.332 3.62 3.62 0 0 1 3.19 3.663v3.424a5.003 5.003 0 0 1 3.816 3.625l2.788-2.788.708.707-3.316 3.315c0 .014.004.027.004.04v3.32a3.962 3.962 0 0 0 2.379-1.128l6.84-6.84a3.84 3.84 0 0 0 .909-3.858 3.618 3.618 0 0 1 .903-3.611l.854-.854L46.284 7.98l-1.728 1.728Z" fill="url(#d)"/><path d="M29.88 21.69a2.49 2.49 0 0 0-2.726-2.189 2.598 2.598 0 0 0-2.242 2.63V33.49a4 4 0 0 0-4 4v9.673a3.84 3.84 0 0 0 2.085 3.37 3.62 3.62 0 0 1 1.915 3.193v1.207h15v-2.444l1.984-1.822a5.058 5.058 0 0 0 2.016-4.04V31.488a4 4 0 0 0-4-4v-4.323a2.621 2.621 0 0 0-2.276-2.668 2.492 2.492 0 0 0-2.682 2.1h.458V38.04h-1V22.597h.5v-2.431a2.621 2.621 0 0 0-2.276-2.668 2.501 2.501 0 0 0-2.724 2.49v1.702h.5v15.443h-1V21.69h.468Zm-4.569 20.35h-1v-8h1v8ZM39.412 27.8h1v10.443h-1V27.8Z" fill="#000"/><path d="M29.88 21.69a2.49 2.49 0 0 0-2.726-2.189 2.598 2.598 0 0 0-2.242 2.63V33.49a4 4 0 0 0-4 4v9.673a3.84 3.84 0 0 0 2.085 3.37 3.62 3.62 0 0 1 1.915 3.193v1.207h15v-2.444l1.984-1.822a5.058 5.058 0 0 0 2.016-4.04V31.488a4 4 0 0 0-4-4v-4.323a2.621 2.621 0 0 0-2.276-2.668 2.492 2.492 0 0 0-2.682 2.1h.458V38.04h-1V22.597h.5v-2.431a2.621 2.621 0 0 0-2.276-2.668 2.501 2.501 0 0 0-2.724 2.49v1.702h.5v15.443h-1V21.69h.468Zm-4.569 20.35h-1v-8h1v8ZM39.412 27.8h1v10.443h-1V27.8Z" fill="url(#e)"/><defs><linearGradient id="a" x1="32.506" y1="56" x2="32.506" y2="62" gradientUnits="userSpaceOnUse"><stop stop-color="#EF8080"/><stop offset="1" stop-color="#F0145A"/></linearGradient><linearGradient id="b" x1="8.455" y1="9.169" x2="11.991" y2="12.705" gradientUnits="userSpaceOnUse"><stop stop-color="#EF8080"/><stop offset="1" stop-color="#F0145A"/></linearGradient><linearGradient id="c" x1="47.345" y1="4.088" x2="60.78" y2="17.523" gradientUnits="userSpaceOnUse"><stop stop-color="#EF8080"/><stop offset="1" stop-color="#F0145A"/></linearGradient><linearGradient id="d" x1="32.143" y1="7.98" x2="32.143" y2="37.032" gradientUnits="userSpaceOnUse"><stop stop-color="#EF8080"/><stop offset="1" stop-color="#F0145A"/></linearGradient><linearGradient id="e" x1="32.412" y1="17.488" x2="32.412" y2="54.932" gradientUnits="userSpaceOnUse"><stop stop-color="#EF8080"/><stop offset="1" stop-color="#F0145A"/></linearGradient></defs></svg>
